public/images/svg/icons/media.svg

<svg x="0px" y="0px" viewBox="0 0 201 201" fill="none" xmlns="http://www.w3.org/2000/svg">
<path fill-rule="evenodd" clip-rule="evenodd" d="M117.059 106C114.943 109.12 112.028 111.04 107.755 112.08C105.519 112.64 100.329 113.32 96.8147 115.68C92.7419 118.48 91.3444 122.56 91.9433 126.2C92.6221 130.32 95.8564 133.96 100.568 134.56C103.922 135 108.075 133.92 112.587 130.4C115.382 128.24 117.857 125.48 119.614 122.08C121.331 118.76 122.369 114.8 122.369 110.28C122.369 103.8 119.774 98.2402 119.774 98.2402C119.774 98.2402 119.614 102.2 117.059 106Z" fill="#447776"/>
<path fill-rule="evenodd" clip-rule="evenodd" d="M90.346 135.6C88.4694 132.28 86.7125 129.36 85.5146 126.56C84.2369 123.48 83.5581 120.56 84.0771 117.36C84.5164 114.6 85.7941 111.64 88.2697 108.28C93.3008 101.44 88.9884 97.6001 88.11 96.4801C87.6708 95.9201 85.6344 93.8801 83.8376 91.4801C81.4817 88.4001 80.5634 86.2801 79.8846 84.8801C77.5287 88.2401 75.2927 91.5201 73.5757 94.9201C71.1001 99.7201 69.5429 104.76 69.7425 110.32C69.8623 113.88 70.4612 117.12 71.6591 119.88C73.3362 123.72 75.8916 127.36 80.3637 130.84C82.8793 132.8 87.4711 134.8 90.346 135.6Z" fill="#447776"/>
<path fill-rule="evenodd" clip-rule="evenodd" d="M110.351 81.9201C111.109 85.4801 110.51 88.4001 109.632 91.1601C108.195 95.6001 105.479 98.9201 101.047 102.6C98.1324 105.04 94.6585 107.08 91.3843 109.6C86.5529 113.36 85.7144 117.56 86.4331 121.84C87.2317 126.4 90.7055 131.36 90.9052 131.64C90.8652 131.44 90.1066 128.16 89.9069 126.64C89.6274 124.6 89.6274 122.68 90.0667 120.84C91.1847 116.44 95.0978 112.64 103.683 110.76C108.035 109.84 111.708 108.84 114.543 105.4C116.819 102.64 117.418 99.9201 117.418 97.5601C117.498 89.8401 110.351 81.9201 110.351 81.9201ZM103.483 47.5601C103.363 43.6801 102.325 40.8801 102.325 40.8801C102.325 40.8801 102.804 44.9601 100.089 50.5201C99.0508 52.7201 97.4137 54.4801 95.2175 56.8801C91.2645 61.2401 89.5476 65.0001 89.1882 68.3201C88.9087 71.2401 89.7073 73.8401 91.0649 76.1601C92.3826 78.4001 97.1741 83.6001 97.4935 83.9201C97.4137 83.7201 96.4953 82.0001 96.0561 80.8801C95.7366 80.1201 95.4571 79.6001 94.7783 77.4401C93.9398 74.8401 93.6204 71.4801 94.4589 68.1601C95.0179 65.9201 96.5352 63.2401 98.4518 61.0401C101.327 57.8001 102.245 55.7601 102.964 52.9601C103.443 51.0801 103.523 49.2401 103.483 47.5601ZM98.7313 88.4001C97.4536 85.6001 94.1794 83.0001 91.2246 79.6801C86.9522 74.9201 83.678 69.1601 89.4278 61.0401C89.1483 61.2401 84.5963 64.3201 82.3204 69.8801C81.0027 73.1601 80.4836 77.2401 82.0808 82.1201C82.8395 84.4801 84.0373 87.0401 85.9939 89.6801C87.2317 91.3201 88.749 93.0401 90.2264 94.7601C90.2264 94.7601 92.7819 97.3201 93.0214 100.4C93.1812 102.36 92.6221 104.76 90.6656 107.48C90.9451 107.2 95.0978 102.76 97.6133 97.8401C99.2105 94.6801 99.9292 91.0401 98.7313 88.4001ZM104.321 68.2801C104.122 63.4001 106.038 60.3601 109.273 57.9201C109.273 57.9201 105.439 58.5201 101.846 60.9601C99.2903 62.6801 96.8547 65.3201 96.0561 69.3201C95.7366 71.0401 95.6967 73.0401 96.096 75.3201C96.5352 77.7201 98.6115 82.4401 99.1705 83.6401C99.7296 84.8401 101.167 87.8001 101.167 90.5201C101.167 92.8001 100.808 95.3201 99.3702 98.4401C98.2921 100.72 96.4953 103.16 94.0197 105.76C94.0197 105.76 113.385 93.5601 107.755 80.6801C105.559 75.5201 104.481 71.5201 104.321 68.2801Z" fill="#447776"/>
<path d="M194.322 33.92C193.843 33 193.404 32.16 192.645 31.08C188.652 25.48 182.223 22.92 175.076 22.24C165.573 21.32 155.431 22.2 145.848 22.2C126.282 22.2 106.677 22.16 87.0718 22.16C87.0718 13.48 80.4036 5.12005 71.2598 2.32005C69.5428 1.80005 67.7859 1.44005 65.9891 1.24005C62.7948 0.840048 59.4806 0.840048 56.2463 0.840048C48.9393 0.840048 41.6322 0.840049 34.3251 0.800049C23.8237 0.800049 11.6852 1.44005 5.29651 8.96005C0.744569 14.32 0.544922 21.56 0.544922 28.28C0.544922 61.92 0.584851 95.52 0.584851 129.16C0.584851 136.2 0.824427 143.92 5.89545 149.32C13.6018 157.52 26.8184 156.84 33.0474 156.52C55.328 155.32 84.8757 155.32 123.727 156C122.848 154.48 121.77 152.24 121.052 149.44C120.333 146.52 120.253 143.96 120.333 142.16C71.4195 142.12 36.0022 142.08 27.2177 142.48C25.5008 142.56 20.0304 142.88 17.475 139.6C16.1573 137.92 16.1174 135.72 16.1174 133.64C16.1174 104.44 16.0774 75.24 16.0774 46.04C16.0774 43.4 16.1972 40.48 18.1538 38.56C20.3898 36.36 24.0633 36.24 27.3774 36.24C75.2128 36.24 123.088 36.24 170.923 36.28C173.798 36.28 176.953 36.4 179.029 38.16C181.585 40.32 181.465 44.16 181.425 45.96C181.145 62.04 181.664 78.08 181.704 94.16C181.704 95.2 181.744 97.44 182.902 99.8C184.38 102.8 186.855 104.28 188.572 105.48C191.207 107.32 194.681 110.36 198.115 115.48C197.357 99.04 197.237 86.08 197.277 77.2C197.317 71.6 196.877 65.96 197.037 60.36C197.476 50.2 198.515 42.16 194.322 33.92ZM33.6863 21.2C32.4085 21.32 31.1308 21.2 29.8531 21.2C29.8531 21.24 29.8531 21.28 29.8531 21.36C28.216 21.24 26.5788 21.28 24.9817 20.96C21.9071 20.32 19.9106 17.8 20.3099 15.32C20.7092 12.6 23.1849 10.6 26.4591 10.52C28.735 10.44 31.011 10.48 33.287 10.52C36.8407 10.6 39.516 12.8 39.6757 15.68C39.8354 18.44 37.2001 20.92 33.6863 21.2ZM57.564 21.16C55.0085 21.36 52.4131 21.32 49.8976 21.16C46.3439 20.92 43.9082 18.48 44.0679 15.56C44.1877 12.68 46.8629 10.52 50.4965 10.44C51.6545 10.4 52.7725 10.44 53.9304 10.44C54.9287 10.44 55.9269 10.44 56.9251 10.44C60.5587 10.52 63.234 12.64 63.4336 15.48C63.5534 18.36 61.0778 20.92 57.564 21.16Z" fill="#5F9898"/>
<path d="M164.774 104.44C145.089 104.28 128.878 120.44 128.838 140.32C128.798 160.08 144.77 176.12 164.574 176.2C184.379 176.28 200.471 160.2 200.471 140.32C200.511 120.52 184.659 104.6 164.774 104.44ZM164.654 169C148.842 169 136.025 156.16 136.025 140.32C136.025 124.48 148.842 111.64 164.654 111.64C180.466 111.64 193.284 124.48 193.284 140.32C193.284 156.16 180.466 169 164.654 169Z" fill="#5F9898"/>
<path d="M144.65 132.68C144.77 132.2 144.81 131.72 144.969 131.28C145.448 129.68 146.407 128.36 147.804 127.32C149.242 126.24 150.919 125.72 152.756 125.72C156.669 125.72 160.622 125.72 164.535 125.72C166.132 125.72 167.729 125.68 169.326 125.76C170.644 125.8 171.882 126.16 173 126.84C175.236 128.16 176.553 130.08 176.873 132.56C176.913 133 176.873 133.48 176.873 134C177.592 133.64 178.23 133.36 178.869 133.04C180.666 132.2 182.423 131.32 184.22 130.48C185.418 129.92 186.576 130.68 186.576 131.96C186.576 134.48 186.576 137.04 186.576 139.56C186.576 142.2 186.576 144.88 186.576 147.52C186.576 148.4 186.576 149.32 186.576 150.2C186.576 151.08 186.017 151.68 185.098 151.8C184.779 151.84 184.42 151.76 184.14 151.6C181.744 150.48 179.388 149.36 176.993 148.2C176.993 148.2 176.953 148.2 176.873 148.2C176.873 148.32 176.873 148.44 176.873 148.56C176.873 151.44 175.595 153.68 173.08 155.24C171.642 156.12 170.085 156.44 168.368 156.44C166.292 156.4 164.175 156.44 162.099 156.44C160.063 156.44 157.986 156.44 155.95 156.44C154.712 156.44 153.514 156.48 152.316 156.44C149.961 156.32 148.044 155.4 146.527 153.68C145.488 152.52 144.889 151.16 144.73 149.64C144.73 149.6 144.69 149.56 144.69 149.52C144.65 143.84 144.65 138.24 144.65 132.68ZM174.557 141.76C174.557 139.44 174.517 137.12 174.517 134.8C174.517 133.4 174.517 131.92 173.798 130.72C173.08 129.48 171.762 128.68 170.324 128.28C168.927 127.88 167.45 127.88 165.972 127.88C165.014 127.88 164.375 127.84 163.896 127.84C163.057 127.8 162.418 127.76 162.259 127.76C160.502 127.64 158.905 127.8 156.189 127.84C152.596 127.88 151.398 127.68 149.961 128.48C149.202 128.88 148.723 129.36 148.603 129.48C147.884 130.2 147.445 131.04 147.126 132.12C146.527 134.16 146.766 136.16 146.846 138.28C146.966 141.28 146.886 147.48 146.846 148.88C146.846 149.24 146.806 150.08 147.205 151.04C147.764 152.44 148.803 153.24 149.082 153.44C150.679 154.64 152.556 154.6 155.032 154.6C159.224 154.6 163.457 154.48 167.649 154.48C169.845 154.48 171.442 154.52 172.64 153.4C173.239 152.88 173.679 152.08 174.118 149.92C174.757 147.16 174.557 145.72 174.557 141.76ZM184.779 132.92C184.34 133.16 183.781 133.44 183.102 133.72C182.703 133.88 182.543 133.96 181.984 134.16C181.664 134.28 181.026 134.56 180.267 134.92C178.23 135.84 179.069 135.6 177.831 136.2C177.512 136.36 177.152 136.52 176.993 136.84C176.953 136.96 176.953 137.08 176.953 137.72C176.953 137.96 176.953 138.2 176.953 138.4C176.953 139 176.953 139.64 176.953 140.24C176.953 142.2 176.993 143.64 176.953 144.48C176.953 144.52 176.953 144.64 176.953 144.8C176.953 144.8 176.953 145.36 177.033 145.84C177.152 146.44 178.31 146.84 180.027 147.64C181.265 148.2 181.105 148.24 182.503 148.84C183.421 149.28 184.26 149.6 184.939 149.84C184.819 144.2 184.819 138.56 184.779 132.92Z" fill="#5F9898"/>
<path d="M155.231 133.04L155.471 150.44C160.262 147.24 165.054 144.08 169.805 140.88C164.974 138.32 160.102 135.68 155.231 133.04Z" fill="#5F9898"/>
</svg>

<svg viewBox="0 0 201 201" fill="none" xmlns="http://www.w3.org/2000/svg"><path fill-rule="evenodd" clip-rule="evenodd" d="M117.059 106c-2.116 3.12-5.031 5.04-9.304 6.08-2.236.56-7.426 1.24-10.94 3.6-4.073 2.8-5.47 6.88-4.872 10.52.68 4.12 3.913 7.76 8.625 8.36 3.354.44 7.507-.64 12.019-4.16 2.795-2.16 5.27-4.92 7.027-8.32 1.717-3.32 2.755-7.28 2.755-11.8 0-6.48-2.595-12.04-2.595-12.04s-.16 3.96-2.715 7.76zm-26.713 29.6c-1.877-3.32-3.633-6.24-4.831-9.04-1.278-3.08-1.957-6-1.438-9.2.44-2.76 1.717-5.72 4.193-9.08 5.03-6.84.718-10.68-.16-11.8-.44-.56-2.476-2.6-4.272-5-2.356-3.08-3.275-5.2-3.953-6.6-2.356 3.36-4.592 6.64-6.31 10.04-2.475 4.8-4.032 9.84-3.832 15.4.12 3.56.718 6.8 1.916 9.56 1.677 3.84 4.233 7.48 8.705 10.96 2.515 1.96 7.107 3.96 9.982 4.76z" fill="#447776"/><path fill-rule="evenodd" clip-rule="evenodd" d="M110.351 81.92c.758 3.56.159 6.48-.719 9.24-1.437 4.44-4.153 7.76-8.585 11.44-2.915 2.44-6.388 4.48-9.663 7-4.831 3.76-5.67 7.96-4.95 12.24.798 4.56 4.272 9.52 4.471 9.8-.04-.2-.798-3.48-.998-5-.28-2.04-.28-3.96.16-5.8 1.118-4.4 5.03-8.2 13.616-10.08 4.352-.92 8.025-1.92 10.86-5.36 2.276-2.76 2.875-5.48 2.875-7.84.08-7.72-7.067-15.64-7.067-15.64zm-6.868-34.36c-.12-3.88-1.158-6.68-1.158-6.68s.479 4.08-2.236 9.64c-1.038 2.2-2.675 3.96-4.871 6.36-3.954 4.36-5.67 8.12-6.03 11.44-.28 2.92.52 5.52 1.877 7.84 1.318 2.24 6.11 7.44 6.428 7.76-.08-.2-.998-1.92-1.437-3.04-.32-.76-.599-1.28-1.278-3.44-.838-2.6-1.158-5.96-.32-9.28.56-2.24 2.077-4.92 3.994-7.12 2.875-3.24 3.793-5.28 4.512-8.08.479-1.88.559-3.72.519-5.4zM98.731 88.4c-1.277-2.8-4.552-5.4-7.506-8.72-4.273-4.76-7.547-10.52-1.797-18.64-.28.2-4.832 3.28-7.108 8.84-1.317 3.28-1.836 7.36-.24 12.24.76 2.36 1.957 4.92 3.914 7.56 1.238 1.64 2.755 3.36 4.232 5.08 0 0 2.556 2.56 2.795 5.64.16 1.96-.399 4.36-2.355 7.08.28-.28 4.432-4.72 6.947-9.64 1.597-3.16 2.316-6.8 1.118-9.44zm5.59-20.12c-.199-4.88 1.717-7.92 4.952-10.36 0 0-3.834.6-7.427 3.04-2.556 1.72-4.991 4.36-5.79 8.36-.32 1.72-.36 3.72.04 6 .44 2.4 2.516 7.12 3.075 8.32.559 1.2 1.996 4.16 1.996 6.88 0 2.28-.359 4.8-1.797 7.92-1.078 2.28-2.875 4.72-5.35 7.32 0 0 19.365-12.2 13.735-25.08-2.196-5.16-3.274-9.16-3.434-12.4z" fill="#447776"/><path d="M194.322 33.92c-.479-.92-.918-1.76-1.677-2.84-3.993-5.6-10.422-8.16-17.569-8.84-9.503-.92-19.645-.04-29.228-.04-19.566 0-39.171-.04-58.776-.04 0-8.68-6.668-17.04-15.812-19.84a29.345 29.345 0 00-5.27-1.08c-3.195-.4-6.51-.4-9.744-.4-7.307 0-14.614 0-21.92-.04-10.502 0-22.64.64-29.03 8.16-4.55 5.36-4.75 12.6-4.75 19.32 0 33.64.04 67.24.04 100.88 0 7.04.24 14.76 5.31 20.16 7.707 8.2 20.923 7.52 27.152 7.2 22.281-1.2 51.829-1.2 90.68-.52a26.202 26.202 0 01-2.675-6.56 25.782 25.782 0 01-.719-7.28c-48.913-.04-84.33-.08-93.115.32-1.717.08-7.188.4-9.743-2.88-1.318-1.68-1.358-3.88-1.358-5.96 0-29.2-.04-58.4-.04-87.6 0-2.64.12-5.56 2.077-7.48 2.236-2.2 5.91-2.32 9.223-2.32 47.836 0 95.711 0 143.546.04 2.875 0 6.03.12 8.106 1.88 2.556 2.16 2.436 6 2.396 7.8-.28 16.08.239 32.12.279 48.2 0 1.04.04 3.28 1.198 5.64 1.478 3 3.953 4.48 5.67 5.68 2.635 1.84 6.109 4.88 9.543 10-.758-16.44-.878-29.4-.838-38.28.04-5.6-.4-11.24-.24-16.84.439-10.16 1.478-18.2-2.715-26.44zM33.686 21.2c-1.278.12-2.555 0-3.833 0v.16c-1.637-.12-3.274-.08-4.871-.4-3.075-.64-5.071-3.16-4.672-5.64.4-2.72 2.875-4.72 6.15-4.8 2.275-.08 4.551-.04 6.827 0 3.554.08 6.229 2.28 6.389 5.16.16 2.76-2.476 5.24-5.99 5.52zm23.878-.04c-2.556.2-5.15.16-7.666 0-3.554-.24-5.99-2.68-5.83-5.6.12-2.88 2.795-5.04 6.428-5.12 1.158-.04 2.276 0 3.434 0h2.995c3.634.08 6.309 2.2 6.509 5.04.12 2.88-2.356 5.44-5.87 5.68z" fill="#5F9898"/><path d="M164.774 104.44c-19.685-.16-35.896 16-35.936 35.88-.04 19.76 15.932 35.8 35.736 35.88 19.805.08 35.897-16 35.897-35.88.04-19.8-15.812-35.72-35.697-35.88zm-.12 64.56c-15.812 0-28.629-12.84-28.629-28.68s12.817-28.68 28.629-28.68c15.812 0 28.63 12.84 28.63 28.68S180.466 169 164.654 169z" fill="#5F9898"/><path d="M144.65 132.68c.12-.48.16-.96.319-1.4.479-1.6 1.438-2.92 2.835-3.96 1.438-1.08 3.115-1.6 4.952-1.6h11.779c1.597 0 3.194-.04 4.791.04 1.318.04 2.556.4 3.674 1.08 2.236 1.32 3.553 3.24 3.873 5.72.04.44 0 .92 0 1.44.719-.36 1.357-.64 1.996-.96 1.797-.84 3.554-1.72 5.351-2.56 1.198-.56 2.356.2 2.356 1.48v18.24c0 .88-.559 1.48-1.478 1.6-.319.04-.678-.04-.958-.2a571.266 571.266 0 01-7.147-3.4h-.12v.36c0 2.88-1.278 5.12-3.793 6.68-1.438.88-2.995 1.2-4.712 1.2-2.076-.04-4.193 0-6.269 0h-6.149c-1.238 0-2.436.04-3.634 0-2.355-.12-4.272-1.04-5.789-2.76a7.035 7.035 0 01-1.797-4.04c0-.04-.04-.08-.04-.12-.04-5.68-.04-11.28-.04-16.84zm29.907 9.08c0-2.32-.04-4.64-.04-6.96 0-1.4 0-2.88-.719-4.08-.718-1.24-2.036-2.04-3.474-2.44-1.397-.4-2.874-.4-4.352-.4-.958 0-1.597-.04-2.076-.04-.839-.04-1.478-.08-1.637-.08-1.757-.12-3.354.04-6.07.08-3.593.04-4.791-.16-6.228.64-.759.4-1.238.88-1.358 1-.719.72-1.158 1.56-1.477 2.64-.599 2.04-.36 4.04-.28 6.16.12 3 .04 9.2 0 10.6 0 .36-.04 1.2.359 2.16a5.627 5.627 0 001.877 2.4c1.597 1.2 3.474 1.16 5.95 1.16 4.192 0 8.425-.12 12.617-.12 2.196 0 3.793.04 4.991-1.08.599-.52 1.039-1.32 1.478-3.48.639-2.76.439-4.2.439-8.16zm10.222-8.84c-.439.24-.998.52-1.677.8-.399.16-.559.24-1.118.44-.32.12-.958.4-1.717.76-2.037.92-1.198.68-2.436 1.28-.319.16-.679.32-.838.64-.04.12-.04.24-.04.88v2.52c0 1.96.04 3.4 0 4.24v.32s0 .56.08 1.04c.119.6 1.277 1 2.994 1.8 1.238.56 1.078.6 2.476 1.2.918.44 1.757.76 2.436 1-.12-5.64-.12-11.28-.16-16.92z" fill="#5F9898"/><path d="M155.231 133.04l.24 17.4c4.791-3.2 9.583-6.36 14.334-9.56-4.831-2.56-9.703-5.2-14.574-7.84z" fill="#5F9898"/></svg>
